shader_type canvas_item;

vec4 multiply(vec4 base, vec4 blend){
	return base * blend;
}


//void light() {
	// Called for every pixel for every light affecting the CanvasItem.
	// Uncomment to replace the default light processing function with this one.
//}
